app/renderer/assets/image/components/serial.svg

<?xml version="1.0" encoding="UTF-8"?>
<svg width="150px" height="150px" viewBox="0 0 150 150" version="1.1" xmlns="http://www.w3.org/2000/svg" xmlns:xlink="http://www.w3.org/1999/xlink">
    <!-- Generator: Sketch 46.1 (44463) - http://www.bohemiancoding.com/sketch -->
    <title>serialPort</title>
    <desc>Created with Sketch.</desc>
    <defs>
        <rect id="path-1" x="107.7" y="64.2" width="7.65" height="1.05"></rect>
        <rect id="path-2" x="93.75" y="57.45" width="35.25" height="35.25" rx="1.2793177"></rect>
        <filter x="-1.4%" y="-1.4%" width="102.8%" height="102.8%" filterUnits="objectBoundingBox" id="filter-3">
            <feGaussianBlur stdDeviation="0.5" in="SourceAlpha" result="shadowBlurInner1"></feGaussianBlur>
            <feOffset dx="0" dy="0" in="shadowBlurInner1" result="shadowOffsetInner1"></feOffset>
            <feComposite in="shadowOffsetInner1" in2="SourceAlpha" operator="arithmetic" k2="-1" k3="1" result="shadowInnerInner1"></feComposite>
            <feColorMatrix values="0 0 0 0 1   0 0 0 0 1   0 0 0 0 1  0 0 0 0.501358696 0" type="matrix" in="shadowInnerInner1"></feColorMatrix>
        </filter>
        <rect id="path-4" x="32.1" y="69.9" width="25.65" height="10.2" rx="0.639658849"></rect>
        <filter x="-7.8%" y="-19.6%" width="115.6%" height="139.2%" filterUnits="objectBoundingBox" id="filter-5">
            <feGaussianBlur stdDeviation="1.5" in="SourceAlpha" result="shadowBlurInner1"></feGaussianBlur>
            <feOffset dx="-1" dy="0" in="shadowBlurInner1" result="shadowOffsetInner1"></feOffset>
            <feComposite in="shadowOffsetInner1" in2="SourceAlpha" operator="arithmetic" k2="-1" k3="1" result="shadowInnerInner1"></feComposite>
            <feColorMatrix values="0 0 0 0 0   0 0 0 0 0   0 0 0 0 0  0 0 0 0.5 0" type="matrix" in="shadowInnerInner1"></feColorMatrix>
        </filter>
        <rect id="path-6" x="9" y="72.15" width="23.1" height="5.7"></rect>
        <filter x="-4.3%" y="-17.5%" width="108.7%" height="135.1%" filterUnits="objectBoundingBox" id="filter-7">
            <feGaussianBlur stdDeviation="0.5" in="SourceAlpha" result="shadowBlurInner1"></feGaussianBlur>
            <feOffset dx="-1" dy="0" in="shadowBlurInner1" result="shadowOffsetInner1"></feOffset>
            <feComposite in="shadowOffsetInner1" in2="SourceAlpha" operator="arithmetic" k2="-1" k3="1" result="shadowInnerInner1"></feComposite>
            <feColorMatrix values="0 0 0 0 0.0637567573   0 0 0 0 0.0676271689   0 0 0 0 0.0906940901  0 0 0 0.378679801 0" type="matrix" in="shadowInnerInner1"></feColorMatrix>
        </filter>
        <rect id="path-8" x="107.7" y="80.4" width="7.65" height="7.65" rx="1.02345416"></rect>
        <filter x="0.0%" y="0.0%" width="100.0%" height="100.0%" filterUnits="objectBoundingBox" id="filter-9">
            <feOffset dx="0" dy="0" in="SourceAlpha" result="shadowOffsetOuter1"></feOffset>
            <feColorMatrix values="0 0 0 0 1   0 0 0 0 1   0 0 0 0 1  0 0 0 0.716995018 0" type="matrix" in="shadowOffsetOuter1" result="shadowMatrixOuter1"></feColorMatrix>
            <feOffset dx="0" dy="0" in="SourceAlpha" result="shadowOffsetOuter2"></feOffset>
            <feColorMatrix values="0 0 0 0 1   0 0 0 0 1   0 0 0 0 1  0 0 0 0.395521966 0" type="matrix" in="shadowOffsetOuter2" result="shadowMatrixOuter2"></feColorMatrix>
            <feMerge>
                <feMergeNode in="shadowMatrixOuter1"></feMergeNode>
                <feMergeNode in="shadowMatrixOuter2"></feMergeNode>
            </feMerge>
        </filter>
        <filter x="-6.5%" y="-6.5%" width="113.1%" height="113.1%" filterUnits="objectBoundingBox" id="filter-10">
            <feGaussianBlur stdDeviation="0.5" in="SourceAlpha" result="shadowBlurInner1"></feGaussianBlur>
            <feOffset dx="0" dy="0" in="shadowBlurInner1" result="shadowOffsetInner1"></feOffset>
            <feComposite in="shadowOffsetInner1" in2="SourceAlpha" operator="arithmetic" k2="-1" k3="1" result="shadowInnerInner1"></feComposite>
            <feColorMatrix values="0 0 0 0 0.160784314   0 0 0 0 0.156862745   0 0 0 0 0.22745098  0 0 0 0.5 0" type="matrix" in="shadowInnerInner1"></feColorMatrix>
        </filter>
        <path d="M7.40064382,6.35825924 L7.38911235,8.91075191 L8.20272191,8.91075191 C8.05665657,10.1869982 7.77605737,10.2329431 7.31223586,10.439695 C6.74078725,10.6949443 6.1565259,10.8047015 5.71576733,10.7906628 L5.68886056,3.80576657 L7.14054502,3.80576657 L5.02003506,0 L2.87261833,3.80576657 L4.48830598,3.80576657 L4.48446215,12.8990217 C3.53375618,12.7790545 2.71374024,12.5595402 2.39342151,11.941837 C2.16919841,11.5091894 1.8732239,10.6655906 1.95778805,10.1882745 C2.49079841,9.95344516 2.96358884,9.42380293 2.96358884,8.80609971 C2.96358884,7.97015836 2.33320159,7.2937478 1.49396653,7.2937478 C0.654731474,7.2937478 0,7.9714346 0,8.80609971 C0,9.42635543 0.388226295,9.95855015 0.923799203,10.190827 C0.96223745,10.6974968 1.09292749,11.9150358 1.47218486,12.459993 C2.05260239,13.2972106 3.05327809,13.6162721 4.51521275,13.9353337 L4.49855618,15.3825971 C3.39665976,15.6697525 2.57920637,16.6575672 2.57920637,17.8444762 C2.57920637,19.2547284 3.72594741,20.3969689 5.14175618,20.3969689 C5.14944382,20.3969689 5.1558502,20.3944164 5.16353785,20.3944164 C5.16738167,20.3944164 5.1712255,20.3969689 5.17506932,20.3969689 C5.18916335,20.3969689 5.20069482,20.3905877 5.21478884,20.3893114 C6.59600319,20.3497478 7.70430598,19.2292035 7.70430598,17.8444762 C7.70430598,16.630766 6.85097689,15.6187026 5.71192351,15.3609009 L5.69526693,12.0618041 C5.69526693,11.9558757 7.4583012,11.735085 8.27831713,11.0242158 C8.9586741,10.43459 9.10858327,10.1869982 9.29693068,8.91075191 L10.0400701,8.91075191 L10.0400701,6.35825924 L7.40064382,6.35825924 L7.40064382,6.35825924 Z" id="path-11"></path>
        <filter x="-5.0%" y="-2.5%" width="110.0%" height="104.9%" filterUnits="objectBoundingBox" id="filter-12">
            <feGaussianBlur stdDeviation="0.5" in="SourceAlpha" result="shadowBlurInner1"></feGaussianBlur>
            <feOffset dx="0" dy="0" in="shadowBlurInner1" result="shadowOffsetInner1"></feOffset>
            <feComposite in="shadowOffsetInner1" in2="SourceAlpha" operator="arithmetic" k2="-1" k3="1" result="shadowInnerInner1"></feComposite>
            <feColorMatrix values="0 0 0 0 0.152801185   0 0 0 0 0.140398217   0 0 0 0 0.203736182  0 0 0 0.5 0" type="matrix" in="shadowInnerInner1"></feColorMatrix>
        </filter>
        <rect id="path-13" x="107.7" y="62.1" width="7.65" height="7.65" rx="1.02345416"></rect>
        <filter x="0.0%" y="0.0%" width="100.0%" height="100.0%" filterUnits="objectBoundingBox" id="filter-14">
            <feOffset dx="0" dy="0" in="SourceAlpha" result="shadowOffsetOuter1"></feOffset>
            <feColorMatrix values="0 0 0 0 1   0 0 0 0 1   0 0 0 0 1  0 0 0 0.716995018 0" type="matrix" in="shadowOffsetOuter1" result="shadowMatrixOuter1"></feColorMatrix>
            <feOffset dx="0" dy="0" in="SourceAlpha" result="shadowOffsetOuter2"></feOffset>
            <feColorMatrix values="0 0 0 0 1   0 0 0 0 1   0 0 0 0 1  0 0 0 0.395521966 0" type="matrix" in="shadowOffsetOuter2" result="shadowMatrixOuter2"></feColorMatrix>
            <feMerge>
                <feMergeNode in="shadowMatrixOuter1"></feMergeNode>
                <feMergeNode in="shadowMatrixOuter2"></feMergeNode>
            </feMerge>
        </filter>
        <filter x="-6.5%" y="-6.5%" width="113.1%" height="113.1%" filterUnits="objectBoundingBox" id="filter-15">
            <feGaussianBlur stdDeviation="0.5" in="SourceAlpha" result="shadowBlurInner1"></feGaussianBlur>
            <feOffset dx="0" dy="0" in="shadowBlurInner1" result="shadowOffsetInner1"></feOffset>
            <feComposite in="shadowOffsetInner1" in2="SourceAlpha" operator="arithmetic" k2="-1" k3="1" result="shadowInnerInner1"></feComposite>
            <feColorMatrix values="0 0 0 0 0.160784314   0 0 0 0 0.156862745   0 0 0 0 0.22745098  0 0 0 0.5 0" type="matrix" in="shadowInnerInner1"></feColorMatrix>
        </filter>
        <rect id="path-16" x="107.7" y="64.65" width="7.65" height="1.35"></rect>
        <filter x="-6.5%" y="-37.0%" width="113.1%" height="174.1%" filterUnits="objectBoundingBox" id="filter-17">
            <feGaussianBlur stdDeviation="0.5" in="SourceAlpha" result="shadowBlurInner1"></feGaussianBlur>
            <feOffset dx="0" dy="0" in="shadowBlurInner1" result="shadowOffsetInner1"></feOffset>
            <feComposite in="shadowOffsetInner1" in2="SourceAlpha" operator="arithmetic" k2="-1" k3="1" result="shadowInnerInner1"></feComposite>
            <feColorMatrix values="0 0 0 0 0.160784314   0 0 0 0 0.156862745   0 0 0 0 0.22745098  0 0 0 0.5 0" type="matrix" in="shadowInnerInner1"></feColorMatrix>
        </filter>
        <rect id="path-18" x="107.7" y="65.85" width="7.65" height="1.35"></rect>
        <filter x="-6.5%" y="-37.0%" width="113.1%" height="174.1%" filterUnits="objectBoundingBox" id="filter-19">
            <feGaussianBlur stdDeviation="0.5" in="SourceAlpha" result="shadowBlurInner1"></feGaussianBlur>
            <feOffset dx="0" dy="0" in="shadowBlurInner1" result="shadowOffsetInner1"></feOffset>
            <feComposite in="shadowOffsetInner1" in2="SourceAlpha" operator="arithmetic" k2="-1" k3="1" result="shadowInnerInner1"></feComposite>
            <feColorMatrix values="0 0 0 0 0.160784314   0 0 0 0 0.156862745   0 0 0 0 0.22745098  0 0 0 0.5 0" type="matrix" in="shadowInnerInner1"></feColorMatrix>
        </filter>
        <rect id="path-20" x="107.7" y="82.95" width="7.65" height="1.35"></rect>
        <filter x="-6.5%" y="-37.0%" width="113.1%" height="174.1%" filterUnits="objectBoundingBox" id="filter-21">
            <feGaussianBlur stdDeviation="0.5" in="SourceAlpha" result="shadowBlurInner1"></feGaussianBlur>
            <feOffset dx="0" dy="0" in="shadowBlurInner1" result="shadowOffsetInner1"></feOffset>
            <feComposite in="shadowOffsetInner1" in2="SourceAlpha" operator="arithmetic" k2="-1" k3="1" result="shadowInnerInner1"></feComposite>
            <feColorMatrix values="0 0 0 0 0.160784314   0 0 0 0 0.156862745   0 0 0 0 0.22745098  0 0 0 0.5 0" type="matrix" in="shadowInnerInner1"></feColorMatrix>
        </filter>
        <rect id="path-22" x="107.7" y="84.15" width="7.65" height="1.35"></rect>
        <filter x="-6.5%" y="-37.0%" width="113.1%" height="174.1%" filterUnits="objectBoundingBox" id="filter-23">
            <feGaussianBlur stdDeviation="0.5" in="SourceAlpha" result="shadowBlurInner1"></feGaussianBlur>
            <feOffset dx="0" dy="0" in="shadowBlurInner1" result="shadowOffsetInner1"></feOffset>
            <feComposite in="shadowOffsetInner1" in2="SourceAlpha" operator="arithmetic" k2="-1" k3="1" result="shadowInnerInner1"></feComposite>
            <feColorMatrix values="0 0 0 0 0.160784314   0 0 0 0 0.156862745   0 0 0 0 0.22745098  0 0 0 0.5 0" type="matrix" in="shadowInnerInner1"></feColorMatrix>
        </filter>
    </defs>
    <g id="Page-1" stroke="none" stroke-width="1" fill="none" fill-rule="evenodd">
        <g id="serialPort">
            <g id="Rectangle">
                <use fill="#D8D8D8" fill-rule="evenodd" xlink:href="#path-1"></use>
                <rect stroke="#979797" stroke-width="0.5" x="107.95" y="64.45" width="7.15" height="1"></rect>
            </g>
            <g id="Rectangle-3">
                <use fill="#D7DAE5" fill-rule="evenodd" xlink:href="#path-2"></use>
                <use fill="black" fill-opacity="1" filter="url(#filter-3)" xlink:href="#path-2"></use>
            </g>
            <g id="Rectangle-10">
                <use fill="#5B5B68" fill-rule="evenodd" xlink:href="#path-4"></use>
                <use fill="black" fill-opacity="1" filter="url(#filter-5)" xlink:href="#path-4"></use>
            </g>
            <g id="Rectangle-11">
                <use fill="#525260" fill-rule="evenodd" xlink:href="#path-6"></use>
                <use fill="black" fill-opacity="1" filter="url(#filter-7)" xlink:href="#path-6"></use>
            </g>
            <rect id="Rectangle-2" fill="#525260" x="56.7" y="55.8" width="38.4" height="38.4" rx="1.2793177"></rect>
            <g id="Rectangle-12-Copy">
                <use fill="black" fill-opacity="1" filter="url(#filter-9)" xlink:href="#path-8"></use>
                <use fill="#C7CCD9" fill-rule="evenodd" xlink:href="#path-8"></use>
                <use fill="black" fill-opacity="1" filter="url(#filter-10)" xlink:href="#path-8"></use>
            </g>
            <g id="USB" transform="translate(75.975000, 75.000000) rotate(90.000000) translate(-75.975000, -75.000000) translate(70.950000, 64.800000)">
                <g id="Shape">
                    <use fill-opacity="0.219999999" fill="#000000" fill-rule="evenodd" xlink:href="#path-11"></use>
                    <use fill="black" fill-opacity="1" filter="url(#filter-12)" xlink:href="#path-11"></use>
                </g>
            </g>
            <g id="Rectangle-12">
                <use fill="black" fill-opacity="1" filter="url(#filter-14)" xlink:href="#path-13"></use>
                <use fill="#C7CCD9" fill-rule="evenodd" xlink:href="#path-13"></use>
                <use fill="black" fill-opacity="1" filter="url(#filter-15)" xlink:href="#path-13"></use>
            </g>
            <g id="Rectangle-13">
                <use fill="#FFFFA6" fill-rule="evenodd" xlink:href="#path-16"></use>
                <use fill="black" fill-opacity="1" filter="url(#filter-17)" xlink:href="#path-16"></use>
            </g>
            <g id="Rectangle-13-Copy">
                <use fill="#BA871F" fill-rule="evenodd" xlink:href="#path-18"></use>
                <use fill="black" fill-opacity="1" filter="url(#filter-19)" xlink:href="#path-18"></use>
            </g>
            <g id="Rectangle-13-Copy-3">
                <use fill="#FFFFA6" fill-rule="evenodd" xlink:href="#path-20"></use>
                <use fill="black" fill-opacity="1" filter="url(#filter-21)" xlink:href="#path-20"></use>
            </g>
            <g id="Rectangle-13-Copy-2">
                <use fill="#BA871F" fill-rule="evenodd" xlink:href="#path-22"></use>
                <use fill="black" fill-opacity="1" filter="url(#filter-23)" xlink:href="#path-22"></use>
            </g>
        </g>
    </g>
</svg>

<svg width="150" height="150" xmlns="http://www.w3.org/2000/svg" xmlns:xlink="http://www.w3.org/1999/xlink"><defs><path id="a" d="M107.7 64.2h7.65v1.05h-7.65z"/><rect id="b" x="93.75" y="57.45" width="35.25" height="35.25" rx="1.279"/><filter x="-1.4%" y="-1.4%" width="102.8%" height="102.8%" filterUnits="objectBoundingBox" id="c"><feGaussianBlur stdDeviation=".5" in="SourceAlpha" result="shadowBlurInner1"/><feOffset in="shadowBlurInner1" result="shadowOffsetInner1"/><feComposite in="shadowOffsetInner1" in2="SourceAlpha" operator="arithmetic" k2="-1" k3="1" result="shadowInnerInner1"/><feColorMatrix values="0 0 0 0 1 0 0 0 0 1 0 0 0 0 1 0 0 0 0.501358696 0" in="shadowInnerInner1"/></filter><rect id="d" x="32.1" y="69.9" width="25.65" height="10.2" rx=".64"/><filter x="-7.8%" y="-19.6%" width="115.6%" height="139.2%" filterUnits="objectBoundingBox" id="e"><feGaussianBlur stdDeviation="1.5" in="SourceAlpha" result="shadowBlurInner1"/><feOffset dx="-1" in="shadowBlurInner1" result="shadowOffsetInner1"/><feComposite in="shadowOffsetInner1" in2="SourceAlpha" operator="arithmetic" k2="-1" k3="1" result="shadowInnerInner1"/><feColorMatrix values="0 0 0 0 0 0 0 0 0 0 0 0 0 0 0 0 0 0 0.5 0" in="shadowInnerInner1"/></filter><path id="f" d="M9 72.15h23.1v5.7H9z"/><filter x="-4.3%" y="-17.5%" width="108.7%" height="135.1%" filterUnits="objectBoundingBox" id="g"><feGaussianBlur stdDeviation=".5" in="SourceAlpha" result="shadowBlurInner1"/><feOffset dx="-1" in="shadowBlurInner1" result="shadowOffsetInner1"/><feComposite in="shadowOffsetInner1" in2="SourceAlpha" operator="arithmetic" k2="-1" k3="1" result="shadowInnerInner1"/><feColorMatrix values="0 0 0 0 0.0637567573 0 0 0 0 0.0676271689 0 0 0 0 0.0906940901 0 0 0 0.378679801 0" in="shadowInnerInner1"/></filter><rect id="i" x="107.7" y="80.4" width="7.65" height="7.65" rx="1.023"/><filter x="0%" y="0%" width="100%" height="100%" filterUnits="objectBoundingBox" id="h"><feOffset in="SourceAlpha" result="shadowOffsetOuter1"/><feColorMatrix values="0 0 0 0 1 0 0 0 0 1 0 0 0 0 1 0 0 0 0.716995018 0" in="shadowOffsetOuter1" result="shadowMatrixOuter1"/><feOffset in="SourceAlpha" result="shadowOffsetOuter2"/><feColorMatrix values="0 0 0 0 1 0 0 0 0 1 0 0 0 0 1 0 0 0 0.395521966 0" in="shadowOffsetOuter2" result="shadowMatrixOuter2"/><feMerge><feMergeNode in="shadowMatrixOuter1"/><feMergeNode in="shadowMatrixOuter2"/></feMerge></filter><filter x="-6.5%" y="-6.5%" width="113.1%" height="113.1%" filterUnits="objectBoundingBox" id="j"><feGaussianBlur stdDeviation=".5" in="SourceAlpha" result="shadowBlurInner1"/><feOffset in="shadowBlurInner1" result="shadowOffsetInner1"/><feComposite in="shadowOffsetInner1" in2="SourceAlpha" operator="arithmetic" k2="-1" k3="1" result="shadowInnerInner1"/><feColorMatrix values="0 0 0 0 0.160784314 0 0 0 0 0.156862745 0 0 0 0 0.22745098 0 0 0 0.5 0" in="shadowInnerInner1"/></filter><path d="M7.4 6.358l-.01 2.553h.813c-.146 1.276-.427 1.322-.89 1.529-.572.255-1.156.365-1.597.35l-.027-6.984H7.14L5.02 0 2.873 3.806h1.615l-.004 9.093c-.95-.12-1.77-.34-2.09-.957-.225-.433-.52-1.276-.436-1.754.533-.235 1.006-.764 1.006-1.382 0-.836-.63-1.512-1.47-1.512S0 7.97 0 8.806c0 .62.388 1.153.924 1.385.038.506.169 1.724.548 2.269.58.837 1.581 1.156 3.043 1.475L4.5 15.383a2.55 2.55 0 0 0-1.92 2.461 2.557 2.557 0 0 0 2.563 2.553c.007 0 .014-.003.022-.003.003 0 .007.003.011.003.014 0 .026-.006.04-.008a2.553 2.553 0 0 0 2.49-2.545 2.552 2.552 0 0 0-1.993-2.483l-.017-3.3c0-.105 1.763-.326 2.583-1.037.68-.59.83-.837 1.019-2.113h.743V6.358H7.4z" id="k"/><filter x="-5%" y="-2.5%" width="110%" height="104.9%" filterUnits="objectBoundingBox" id="l"><feGaussianBlur stdDeviation=".5" in="SourceAlpha" result="shadowBlurInner1"/><feOffset in="shadowBlurInner1" result="shadowOffsetInner1"/><feComposite in="shadowOffsetInner1" in2="SourceAlpha" operator="arithmetic" k2="-1" k3="1" result="shadowInnerInner1"/><feColorMatrix values="0 0 0 0 0.152801185 0 0 0 0 0.140398217 0 0 0 0 0.203736182 0 0 0 0.5 0" in="shadowInnerInner1"/></filter><rect id="n" x="107.7" y="62.1" width="7.65" height="7.65" rx="1.023"/><filter x="0%" y="0%" width="100%" height="100%" filterUnits="objectBoundingBox" id="m"><feOffset in="SourceAlpha" result="shadowOffsetOuter1"/><feColorMatrix values="0 0 0 0 1 0 0 0 0 1 0 0 0 0 1 0 0 0 0.716995018 0" in="shadowOffsetOuter1" result="shadowMatrixOuter1"/><feOffset in="SourceAlpha" result="shadowOffsetOuter2"/><feColorMatrix values="0 0 0 0 1 0 0 0 0 1 0 0 0 0 1 0 0 0 0.395521966 0" in="shadowOffsetOuter2" result="shadowMatrixOuter2"/><feMerge><feMergeNode in="shadowMatrixOuter1"/><feMergeNode in="shadowMatrixOuter2"/></feMerge></filter><filter x="-6.5%" y="-6.5%" width="113.1%" height="113.1%" filterUnits="objectBoundingBox" id="o"><feGaussianBlur stdDeviation=".5" in="SourceAlpha" result="shadowBlurInner1"/><feOffset in="shadowBlurInner1" result="shadowOffsetInner1"/><feComposite in="shadowOffsetInner1" in2="SourceAlpha" operator="arithmetic" k2="-1" k3="1" result="shadowInnerInner1"/><feColorMatrix values="0 0 0 0 0.160784314 0 0 0 0 0.156862745 0 0 0 0 0.22745098 0 0 0 0.5 0" in="shadowInnerInner1"/></filter><path id="p" d="M107.7 64.65h7.65V66h-7.65z"/><filter x="-6.5%" y="-37%" width="113.1%" height="174.1%" filterUnits="objectBoundingBox" id="q"><feGaussianBlur stdDeviation=".5" in="SourceAlpha" result="shadowBlurInner1"/><feOffset in="shadowBlurInner1" result="shadowOffsetInner1"/><feComposite in="shadowOffsetInner1" in2="SourceAlpha" operator="arithmetic" k2="-1" k3="1" result="shadowInnerInner1"/><feColorMatrix values="0 0 0 0 0.160784314 0 0 0 0 0.156862745 0 0 0 0 0.22745098 0 0 0 0.5 0" in="shadowInnerInner1"/></filter><path id="r" d="M107.7 65.85h7.65v1.35h-7.65z"/><filter x="-6.5%" y="-37%" width="113.1%" height="174.1%" filterUnits="objectBoundingBox" id="s"><feGaussianBlur stdDeviation=".5" in="SourceAlpha" result="shadowBlurInner1"/><feOffset in="shadowBlurInner1" result="shadowOffsetInner1"/><feComposite in="shadowOffsetInner1" in2="SourceAlpha" operator="arithmetic" k2="-1" k3="1" result="shadowInnerInner1"/><feColorMatrix values="0 0 0 0 0.160784314 0 0 0 0 0.156862745 0 0 0 0 0.22745098 0 0 0 0.5 0" in="shadowInnerInner1"/></filter><path id="t" d="M107.7 82.95h7.65v1.35h-7.65z"/><filter x="-6.5%" y="-37%" width="113.1%" height="174.1%" filterUnits="objectBoundingBox" id="u"><feGaussianBlur stdDeviation=".5" in="SourceAlpha" result="shadowBlurInner1"/><feOffset in="shadowBlurInner1" result="shadowOffsetInner1"/><feComposite in="shadowOffsetInner1" in2="SourceAlpha" operator="arithmetic" k2="-1" k3="1" result="shadowInnerInner1"/><feColorMatrix values="0 0 0 0 0.160784314 0 0 0 0 0.156862745 0 0 0 0 0.22745098 0 0 0 0.5 0" in="shadowInnerInner1"/></filter><path id="v" d="M107.7 84.15h7.65v1.35h-7.65z"/><filter x="-6.5%" y="-37%" width="113.1%" height="174.1%" filterUnits="objectBoundingBox" id="w"><feGaussianBlur stdDeviation=".5" in="SourceAlpha" result="shadowBlurInner1"/><feOffset in="shadowBlurInner1" result="shadowOffsetInner1"/><feComposite in="shadowOffsetInner1" in2="SourceAlpha" operator="arithmetic" k2="-1" k3="1" result="shadowInnerInner1"/><feColorMatrix values="0 0 0 0 0.160784314 0 0 0 0 0.156862745 0 0 0 0 0.22745098 0 0 0 0.5 0" in="shadowInnerInner1"/></filter></defs><g fill="none" fill-rule="evenodd"><use fill="#D8D8D8" xlink:href="#a"/><path stroke="#979797" stroke-width=".5" d="M107.95 64.45h7.15v1h-7.15z"/><use fill="#D7DAE5" xlink:href="#b"/><use fill="#000" filter="url(#c)" xlink:href="#b"/><use fill="#5B5B68" xlink:href="#d"/><use fill="#000" filter="url(#e)" xlink:href="#d"/><use fill="#525260" xlink:href="#f"/><use fill="#000" filter="url(#g)" xlink:href="#f"/><rect fill="#525260" x="56.7" y="55.8" width="38.4" height="38.4" rx="1.279"/><use fill="#000" filter="url(#h)" xlink:href="#i"/><use fill="#C7CCD9" xlink:href="#i"/><use fill="#000" filter="url(#j)" xlink:href="#i"/><g fill="#000" transform="rotate(90 8.1 78.075)"><use fill-opacity=".22" xlink:href="#k"/><use filter="url(#l)" xlink:href="#k"/></g><use fill="#000" filter="url(#m)" xlink:href="#n"/><use fill="#C7CCD9" xlink:href="#n"/><use fill="#000" filter="url(#o)" xlink:href="#n"/><use fill="#FFFFA6" xlink:href="#p"/><use fill="#000" filter="url(#q)" xlink:href="#p"/><use fill="#BA871F" xlink:href="#r"/><use fill="#000" filter="url(#s)" xlink:href="#r"/><use fill="#FFFFA6" xlink:href="#t"/><use fill="#000" filter="url(#u)" xlink:href="#t"/><use fill="#BA871F" xlink:href="#v"/><use fill="#000" filter="url(#w)" xlink:href="#v"/></g></svg>
